X:1
T:D Major*   Solomon Howe, 1804
T:Anonymous, first published with this tune in 1804    88. 88. (L. M.)
T:Annapolis
T:Transcribed from The Farmer's Evening Entertainment, 1804.
%%score [ 1 2 3 4 ]
L:1/8
Q:1/4=60
M:2/4
K:D
V:1 treble nm="Tr." snm="Tr."
V:2 treble nm="C." snm="C."
V:3 treble-8 nm="T." snm="T."
V:4 bass nm="B." snm="B."
V:1
 B2 | B2 d2 | A2 d2 | d2 c>d | A3 B | d>e ff | d3 e | A2 ^G2 | A3 z | d2 dd | e3 e | f2 f2 | e4 | %13
w: 1.~While|we ad-|mire the|vast de- *|sign Of|Christ~ _ _ our|King, our|Priest and|God,|We trace the|rack- ing|pains he|bore,|
 f2 ee | d2 A2 | d2 c2 | [Bd]4 |] %17
w: To know the|me- rits|of his|blood.|
V:2
 D2 | F2 F2 | E2 F2 | F2 A2 | F3 F | F>G AF | G3 E | F2 E2 | E3 z | F2 FF | G2 A2 | A3 G | A4 | %13
w: 2.~Though|he was|rich in|worlds a-|bove, Au-|thor~ _ _ of|heav'n's un-|boun- ded|store,|Yet, for our|sakes he|left his|throne,|
 A2 AA | G2 F2 | F2 E2 | F4 |] %17
w: Be- came im-|mea- su-|ra- bly|poor.|
V:3
 B>c | d2 B>d | c2 A>c | B2 A>G | F3 F | A3 F | B3 c | d2 B2 | c3 z | A2 AA | B3 c | d>c Bd | c4 | %13
w: 3.~To *|make us~ _|rich in~ _|heav'n- ky~ _|things, He|suf- fered|pain, re-|proach, and|grief;|To free us|from e-|ter- * * nal|pains,|
 d2 cA | B2 F2 | B2 ^A2 | B4 |] %17
w: And grant poor|dy- ing|men re-|lief.|
V:4
 B,,2 | B,,2 B,,2 | A,,2 D,>C, | B,,2 C,A,, | D,3 B,, | D,3 D, | B,,3 A,, | D,2 E,>C, | A,,3 z | %9
w: 4.~While|on the|cross he~ _|bore our~ _|crimes, God's|law and|ho- nored|and re- *|stored;|
"^____________________________________________________________\n*. Most of piece is in D major, except for the first and last few notes in B minor.\nEdited by B. C. Johnston, 2017\nMeasure 11, Bass: three notes, written as 8•16-8; rendered as 4 8-8." D,2 D,D, | %10
w: His me- rits|
 (E,2 D,)C, | D,3 B,, | A,,4 | D,2 A,,A,, | B,,2 D,2 | B,,2 F,,2 | B,,4 |] %17
w: gave~ _ us|life di-|vine,|His name shall|ev- er|be a-|dored.|

